X:1
T:B. D. Ackley
T:James Rowe
T:Make the Most of Your Blessings
%%score { ( 1 2 ) | ( 3 4 ) }
L:1/8
M:6/4
K:Ab
V:1 treble 
V:2 treble 
V:3 bass 
V:4 bass 
V:1
{/x} E2 A2 B2 c2 d2 c2 | B2 E2 B2 A6 | e4 e2 e2 c2 A2 | c6 B6 | E2 A2 B2 c2 d2 c2 | B2 E2 B2 A6 | %6
w: As you go on\- ward with|Je\- sus each day,|Make the most of your|bless\- ings;|Use them and help un\- to|oth\- ers con\- vey,|
w: Since they are sent to your|heart from a\- bove,|Make the most of your|bless\- ings;|Use them for God in re\-|turn for His love,|
w: Oth\- ers to strength\- en, to|com\- fort and guide;|Make the most of your|bless\- ings;|Do\- ing His will, walk\- ing|close by His side,|
 B4 e2 e2 B2 G2 | F6 E6 |"^Chorus" c4 c2 c2 A2 E2 | F6 E6 | E2 A2 B2 c2 d2 c2 | B6- B6 | %12
w: Make the most of your|bless\- ings.|Make the most of your|bless\- ings,|Use them for Je\- sus each|day; *|
w: Make the most of your|bless\- ings.|||||
w: Make the most of your|bless\- ings.|||||
 c2 d2 c2 A2 G2 A2 | B2 A2 F2 E6 | e4 e2 e2 c2 A2 | B6 A6 |] %16
w: Do\- ing your best for the|lost and op\- prest,|Make the most of your|bless\- ings.|
w: ||||
w: ||||
V:2
 C2 C2 D2 E2 F2 E2 | D2 D2 D2 C6 | A4 A2 A2 A2 E2 | E6 E6 | C2 E2 E2 E2 F2 E2 | D2 D2 D2 C6 | %6
 E4 G2 G2 G2 E2 | =D6 E6 | E4 E2 E2 C2 C2 | =B,6 C6 | C2 E2 E2 E2 F2 E2 | D6- D6 | %12
 E2 F2 E2 C2 B,2 C2 | D2 D2 D2 C6 | E4 E2 E2 E2 E2 | D6 C6 |] %16
V:3
 A,2 E,2 E,2 A,2 A,2 A,2 | G,2 G,2 G,2 A,6 | C4 C2 C2 E2 C2 | A,6 G,6 | A,2 A,2 G,2 A,2 A,2 A,2 | %5
 G,2 G,2 G,2 A,6 | G,4 B,2 B,2 E2 B,2 | A,6 G,6 | A,4 A,2 A,2 E,2 A,2 | A,6 A,6 | %10
 A,2 A,2 G,2 A,2 A,2 A,2 | G,6- G,6 | A,2 A,2 A,2 A,2 A,2 E,2 | F,2 F,2 A,2 A,6 | %14
 C4 C2 C2 A,2 A,2 | G,6 [E,A,]6 |] %16
V:4
 A,,2 A,,2 A,,2 A,,2 A,,2 A,,2 | E,2 E,2 E,2 A,,6 | A,4 A,2 A,2 A,2 A,2 | E,6 E,6 | %4
 A,,2 C,2 E,2 A,2 A,2 A,,2 | E,2 E,2 E,2 A,,6 | E,4 E,2 E,2 E,2 E,2 | B,,6 E,6 | %8
 A,,4 A,,2 A,,2 A,,2 A,,2 | A,,6 A,,6 | A,,2 C,2 E,2 A,2 A,2 A,2 | E,6- E,6 | %12
 A,,2 A,,2 A,,2 A,,2 A,,2 A,,2 | D,2 D,2 D,2 A,,6 | A,4 A,2 A,2 A,,2 C,2 | E,6 A,,6 |] %16

